X: 16709
T: Happy Soldier
R: jig
M: 6/8
K: Gmajor
e|d^cd GB=c|dBc d2e|d^cd GBd|cAB c2e|d^cd GB=c|
dBc d2e|d^cd GBd|cAB c2||e|dcB dcB|dcB d2e|
dBd gGB|cAB c2e|dcB dcB|dcB d2e|dBd gGB|def g2||

